assets/svg/arrow-right.svg

<svg class="svg-arrow svg-arrow--right" xmlns="http://www.w3.org/2000/svg" preserveAspectRatio="xMidYMid" width="41" height="16"><path d="M40.123 7.924l.709.708-7.235 7.219-1.418-1.415 5.522-5.511H.002V6.923h37.699l-5.522-5.511 1.418-1.415 7.235 7.22-.709.707z" class="cls-2" fill-rule="evenodd"/></svg>

<svg class="svg-arrow  svg-arrow--right" xmlns="http://www.w3.org/2000/svg" xmlns:xlink="http://www.w3.org/1999/xlink" preserveAspectRatio="xMidYMid" width="41" height="16" viewBox="0 0 41 16">
  <path d="M40.123,7.924 C40.123,7.924 40.832,8.632 40.832,8.632 C40.832,8.632 33.597,15.851 33.597,15.851 C33.597,15.851 32.179,14.436 32.179,14.436 C32.179,14.436 37.701,8.925 37.701,8.925 C37.701,8.925 0.002,8.925 0.002,8.925 C0.002,8.925 0.002,6.923 0.002,6.923 C0.002,6.923 37.701,6.923 37.701,6.923 C37.701,6.923 32.179,1.412 32.179,1.412 C32.179,1.412 33.597,-0.003 33.597,-0.003 C33.597,-0.003 40.832,7.217 40.832,7.217 C40.832,7.217 40.123,7.924 40.123,7.924 C40.123,7.924 40.123,7.924 40.123,7.924 Z" id="path-1" class="cls-2" fill-rule="evenodd"/>
</svg>
